X:65
T:Nanny's Choice. Ru2.065
%%VWML:RutherfordVol2-2249-p33-0
F:http://www.vwml.org/record/RutherfordVol2/2249/p33
L:1/8
N:NB.Rests added.
B:RUTHERFORD Complete Collection of 200 Country Dances Vol.2; 1759.
Z:vmp. Peter Dunk 2015
Q:1/2=80
K:A
"NB"zc/d/|eca2 ecdf|ecBA B3D|CEAB cAdB|ecac B3 c/d/|
eca2 ecdf|ecBA B3D|CEAB cfed|c2 trB2 A2:|
|:"NB"zc|BEdB cAec|BEdB trc3 A|BEdB cAec|(3agf (3edc trB3 c|
BEdB cAec|BEdB trc3 A|BEdB cfed|c2 trB2 A2:|
W:
W:The first Man sets to the 2d. Wo. & turn, his partner sets to the 2d.
W:Man & turn .| the 2d. Cu: does the same with the 3d Cu: :| cross
W:over two Cu: . Lead to the top & cast off :| Hands round 4 with 3d
W:Cu: Right & Left at top :|
T:Roy Stewart's Reel. Ru2.066
M:C|
L:1/8
R:Reel
N:Final note halved in duration to accommodate the pick up note.
B:RUTHERFORD Complete Collection of 200 Country Dances Vol.2; 1759.
Z:vmp. Peter Dunk 2015
Q:1/2=70
K:F
c|AF2A c2d/c/B/A/|BG2B BGGd|AF2A cdcB|AFFc AFF:|
|:e|f>gaf gfaf|gdd^f gdde|=f>gaf gfag|fdcB AF2e|
f>gaf gfaf|gdd^f gddg|(a/g/f) (g/f/e) (f/d/c) (d/c/A)|FAfc AF"NB"F:|
W:
W:The first Cu: foot it & cast off two Cu: .| lead to the top and cast off:|
W:foot it with the 3d. Cu: & Right hands across foot it with the 2d. Cu:
W:& Left hands across .| lead outsides & turn :|
